layouts/icon-pack/spell_cure.svg

<?xml version="1.0" encoding="UTF-8"?>
<svg width="1200pt" height="1200pt" version="1.1" viewBox="0 0 1200 1200" xmlns="http://www.w3.org/2000/svg">
 <g fill="#fff">
  <path d="m394.52 971.84c71.746 50.848 137.97 109.07 197.58 173.72 5.8906 6.4844 14.242 10.18 23.004 10.18s17.113-3.6953 23.004-10.18c59.605-64.656 125.83-122.88 197.58-173.72 0 0 171.4-118.71 159.52-290.18s-162.89-196.88-162.89-196.88-111.47-27.094-195.4 58.969c-5.7344 5.8789-13.598 9.1914-21.809 9.1914-8.2109 0-16.074-3.3125-21.809-9.1914-83.93-86.016-195.4-58.875-195.4-58.875s-151.01 25.453-162.89 196.88c-11.883 171.42 159.52 290.09 159.52 290.09z"/>
  <path d="m1054.1 242.27v-90.094c0-5.0859-2.0195-9.9609-5.6172-13.555-3.5938-3.5977-8.4688-5.6172-13.555-5.6172h-50.391c-5.0859 0-9.9609-2.0195-13.555-5.6172-3.5977-3.5938-5.6172-8.4688-5.6172-13.555v-50.391c0.007813-5.082-2.0078-9.9609-5.6016-13.555-3.5898-3.5977-8.4648-5.6172-13.547-5.6172h-90.117c-5.082 0-9.957 2.0195-13.547 5.6172-3.5938 3.5938-5.6094 8.4727-5.6016 13.555v50.391c0 5.0859-2.0195 9.9609-5.6172 13.555-3.5938 3.5977-8.4688 5.6172-13.555 5.6172h-50.414c-5.082 0-9.957 2.0195-13.547 5.6172-3.5938 3.5938-5.6094 8.4727-5.6016 13.555v90.094c0 5.0781 2.0156 9.9492 5.6094 13.539 3.5898 3.5938 8.4609 5.6094 13.539 5.6094h50.414c5.0859 0 9.9609 2.0195 13.555 5.6172 3.5977 3.5938 5.6172 8.4688 5.6172 13.555v50.414c0 5.0781 2.0156 9.9492 5.6094 13.539 3.5898 3.5938 8.4609 5.6094 13.539 5.6094h90.117c5.0781 0 9.9492-2.0156 13.539-5.6094 3.5938-3.5898 5.6094-8.4609 5.6094-13.539v-50.414c0-5.0859 2.0195-9.9609 5.6172-13.555 3.5938-3.5977 8.4688-5.6172 13.555-5.6172h50.391c5.082 0.007813 9.9609-2.0078 13.555-5.6016 3.5977-3.5898 5.6172-8.4648 5.6172-13.547z"/>
  <path d="m233.25 408.35h72.961c4.1133 0 8.0625-1.6328 10.973-4.543s4.543-6.8594 4.543-10.973v-40.828c0-4.1133 1.6328-8.0625 4.543-10.973 2.9102-2.9102 6.8594-4.543 10.973-4.543h40.828c4.1133 0 8.0625-1.6328 10.973-4.543 2.9102-2.9102 4.543-6.8594 4.543-10.973v-72.961c0-4.1133-1.6328-8.0625-4.543-10.973-2.9102-2.9102-6.8594-4.543-10.973-4.543h-40.828c-4.1133 0-8.0625-1.6328-10.973-4.543-2.9102-2.9102-4.543-6.8594-4.543-10.973v-40.828c0-4.1133-1.6328-8.0625-4.543-10.973s-6.8594-4.543-10.973-4.543h-72.961c-4.1133 0-8.0625 1.6328-10.973 4.543s-4.543 6.8594-4.543 10.973v40.828c-0.007813 4.1133-1.6445 8.0547-4.5508 10.965-2.9102 2.9062-6.8516 4.543-10.965 4.5508h-40.828c-4.1133 0-8.0625 1.6328-10.973 4.543-2.9102 2.9102-4.543 6.8594-4.543 10.973v73.078c0 4.1133 1.6328 8.0625 4.543 10.973 2.9102 2.9102 6.8594 4.543 10.973 4.543h40.828c4.1133 0 8.0625 1.6328 10.973 4.543s4.543 6.8594 4.543 10.973v40.828c0.03125 4.0938 1.6797 8.0117 4.5859 10.895 2.9062 2.8867 6.8359 4.5039 10.93 4.5039z"/>
 </g>
</svg>

<?xml version="1.0" encoding="UTF-8" standalone="no"?>
<!DOCTYPE svg PUBLIC "-//W3C//DTD SVG 1.1//EN" "http://www.w3.org/Graphics/SVG/1.1/DTD/svg11.dtd">
<svg width="100%" height="100%" viewBox="0 0 419 512" version="1.1" xmlns="http://www.w3.org/2000/svg" xmlns:xlink="http://www.w3.org/1999/xlink" xml:space="preserve" xmlns:serif="http://www.serif.com/" style="fill-rule:evenodd;clip-rule:evenodd;stroke-linejoin:round;stroke-miterlimit:2;">
    <g transform="matrix(1,0,0,1,-145.874,-44.2684)">
        <g transform="matrix(0.460651,0,0,0.460651,78.6772,23.8761)">
            <path d="M394.52,971.84C466.266,1022.69 532.49,1080.91 592.1,1145.56C597.991,1152.04 606.342,1155.74 615.104,1155.74C623.866,1155.74 632.217,1152.05 638.108,1145.56C697.713,1080.9 763.938,1022.68 835.688,971.84C835.688,971.84 1007.09,853.13 995.208,681.66C983.328,510.19 832.318,484.78 832.318,484.78C832.318,484.78 720.848,457.686 636.918,543.749C631.184,549.628 623.32,552.94 615.109,552.94C606.898,552.94 599.035,549.628 593.3,543.749C509.37,457.733 397.9,484.874 397.9,484.874C397.9,484.874 246.89,510.327 235.01,681.754C223.127,853.174 394.53,971.844 394.53,971.844L394.52,971.84Z" style="fill:white;fill-rule:nonzero;"/>
            <path d="M1054.1,242.27L1054.1,152.176C1054.1,147.09 1052.08,142.215 1048.48,138.621C1044.89,135.023 1040.01,133.004 1034.93,133.004L984.537,133.004C979.451,133.004 974.576,130.984 970.982,127.387C967.384,123.793 965.365,118.918 965.365,113.832L965.365,63.441C965.372,58.359 963.357,53.48 959.763,49.886C956.173,46.288 951.298,44.268 946.216,44.268L856.099,44.268C851.017,44.268 846.142,46.288 842.552,49.886C838.958,53.479 836.943,58.358 836.95,63.441L836.95,113.832C836.95,118.918 834.931,123.793 831.333,127.387C827.739,130.984 822.864,133.004 817.778,133.004L767.364,133.004C762.282,133.004 757.407,135.023 753.817,138.621C750.223,142.215 748.208,147.094 748.216,152.176L748.216,242.27C748.216,247.348 750.231,252.219 753.825,255.809C757.415,259.403 762.286,261.418 767.364,261.418L817.778,261.418C822.864,261.418 827.739,263.438 831.333,267.036C834.931,270.629 836.95,275.504 836.95,280.591L836.95,331.005C836.95,336.083 838.966,340.954 842.56,344.544C846.149,348.137 851.021,350.153 856.099,350.153L946.216,350.153C951.294,350.153 956.165,348.137 959.755,344.544C963.348,340.954 965.364,336.083 965.364,331.005L965.364,280.591C965.364,275.505 967.384,270.63 970.981,267.036C974.575,263.438 979.45,261.418 984.536,261.418L1034.93,261.418C1040.01,261.426 1044.89,259.411 1048.48,255.817C1052.08,252.227 1054.1,247.352 1054.1,242.27L1054.1,242.27Z" style="fill:white;fill-rule:nonzero;"/>
            <path d="M233.25,408.35L306.211,408.35C310.324,408.35 314.274,406.717 317.184,403.807C320.095,400.897 321.727,396.948 321.727,392.834L321.727,352.006C321.727,347.893 323.36,343.943 326.27,341.033C329.18,338.123 333.129,336.49 337.243,336.49L378.071,336.49C382.184,336.49 386.134,334.857 389.044,331.947C391.954,329.037 393.587,325.088 393.587,320.974L393.587,248.013C393.587,243.9 391.954,239.95 389.044,237.04C386.134,234.13 382.185,232.497 378.071,232.497L337.243,232.497C333.13,232.497 329.181,230.864 326.27,227.954C323.36,225.044 321.727,221.095 321.727,216.981L321.727,176.153C321.727,172.04 320.094,168.09 317.184,165.18C314.274,162.269 310.325,160.637 306.211,160.637L233.25,160.637C229.137,160.637 225.188,162.27 222.277,165.18C219.366,168.09 217.734,172.039 217.734,176.153L217.734,216.981C217.726,221.094 216.089,225.036 213.183,227.946C210.273,230.852 206.332,232.489 202.218,232.497L161.39,232.497C157.277,232.497 153.328,234.13 150.417,237.04C147.507,239.95 145.874,243.899 145.874,248.013L145.874,321.091C145.874,325.204 147.507,329.153 150.417,332.064C153.327,334.974 157.277,336.607 161.39,336.607L202.218,336.607C206.331,336.607 210.281,338.24 213.191,341.15C216.102,344.06 217.734,348.009 217.734,352.123L217.734,392.951C217.765,397.045 219.414,400.962 222.32,403.846C225.226,406.732 229.156,408.35 233.25,408.35L233.25,408.35Z" style="fill:white;fill-rule:nonzero;"/>
        </g>
    </g>
</svg>
